app/img/video/bg.svg

<svg width="2836" height="2422" fill="none" xmlns="http://www.w3.org/2000/svg"><path d="M1220.33 1965.87c325.29 29.76 33.83-226.91 79.3-343.38 194.09-497.19 1243.98 329.38 1345.99-248.85 68.58-388.709-816.69-329.7-846.18-511.755-42.97-265.328-271.46-603.458-619.53-535.323-384.535 75.271-605.794 124.834-720.305 229.122-114.51 104.287-307.724 355.398-110.696 621.106 197.028 265.71 301.963-109.46 479.983-45.38 178.018 64.09-26.822 274.85-12.462 438.32 14.36 163.48 165.883 374.37 403.9 396.14z" fill="url(#paint0_linear)"/><defs><linearGradient id="paint0_linear" x1="824.98" y1="1040.26" x2="2029.05" y2="310.303" gradientUnits="userSpaceOnUse"><stop stop-color="#8AE698"/><stop offset="1" stop-color="#08B688"/></linearGradient></defs></svg>

<svg width="2836" height="2422" viewBox="0 0 2836 2422" fill="none" xmlns="http://www.w3.org/2000/svg">
<path d="M1220.33 1965.87C1545.62 1995.63 1254.16 1738.96 1299.63 1622.49C1493.72 1125.3 2543.61 1951.87 2645.62 1373.64C2714.2 984.931 1828.93 1043.94 1799.44 861.885C1756.47 596.557 1527.98 258.427 1179.91 326.562C795.375 401.833 574.116 451.396 459.605 555.684C345.095 659.971 151.881 911.082 348.909 1176.79C545.937 1442.5 650.872 1067.33 828.892 1131.41C1006.91 1195.5 802.07 1406.26 816.43 1569.73C830.79 1733.21 982.313 1944.1 1220.33 1965.87Z" fill="url(#paint0_linear)"/>
<defs>
<linearGradient id="paint0_linear" x1="824.98" y1="1040.26" x2="2029.05" y2="310.303" gradientUnits="userSpaceOnUse">
<stop stop-color="#8AE698"/>
<stop offset="1" stop-color="#08B688"/>
</linearGradient>
</defs>
</svg>
